!!!COA: Josquin des Prez
!!!CDT: ~1450-1521/08/27
!!!OTL@@LAT: O bone et dulcissime Jesu
!!!OTL2@@LAT: Si ego commissi
!!!AGN: Motet
!!!SCT: NJE 21.9
!!!SCA: New Josquin Edition 21.9
!!!voices: 4
**kern	**kern	**kern	**kern
*staff4	*staff3	*staff2	*staff1
*Ivox	*Ivox	*Ivox	*Ivox
*I"Bassus	*I"Tenor	*I"Altus	*I"Superius
*I'B	*I'T	*I'A	*I'S
*clefF4	*clefGv2	*clefGv2	*clefG2
*>[A,B]	*>[A,B]	*>[A,B]	*>[A,B]
*>Part1[A]	*>Part1[A]	*>Part1[A]	*>Part1[A]
*>Part2[B]	*>Part2[B]	*>Part2[B]	*>Part2[B]
*>A	*>A	*>A	*>A
*k[]	*k[]	*k[]	*k[]
*M2/1	*M2/1	*M2/1	*M2/1
*met(C|)	*met(C|)	*met(C|)	*met(C|)
=1-	=1-	=1-	=1-
0r	0r	0r	0d
=2	=2	=2	=2
0r	0r	0r	0a
=3	=3	=3	=3
0r	0r	0A	0a
=4	=4	=4	=4
0r	0r	0e	0g
=5	=5	=5	=5
0r	0r	0e	1r
.	.	.	[1cc
=6	=6	=6	=6
0r	0r	0d	1cc]
.	.	.	1b
=7	=7	=7	=7
0r	0r	1r	1a
.	.	[1g	1g
=8	=8	=8	=8
0r	0r	1g]	0a
.	.	1f	.
=9	=9	=9	=9
0r	0r	1e	1g
.	.	1d	1f
=10	=10	=10	=10
0r	0r	0e	0g
=11	=11	=11	=11
0r	0r	1d	1f
.	.	1c	2r
.	.	.	[2a/
=12	=12	=12	=12
0r	0D	0d	4a/]
.	.	.	4g/
.	.	.	4f/
.	.	.	4e/
.	.	.	1f
=13	=13	=13	=13
0r	0A	[0c	[0e
=14	=14	=14	=14
0AA	0A	0c]	0e]
=15	=15	=15	=15
0E	0G	0r	0r
=16	=16	=16	=16
0E	1r	0r	0r
.	[1c	.	.
=17	=17	=17	=17
0D	1c]	0r	0r
.	1B	.	.
=18	=18	=18	=18
1r	1A	0r	0r
[1G	1G	.	.
=19	=19	=19	=19
1G]	0A	0r	0r
1F	.	.	.
=20	=20	=20	=20
1E	1G	0r	0r
1D	1F	.	.
=21	=21	=21	=21
0E	0G	0r	0r
=22	=22	=22	=22
1D	2.F/	0r	0r
.	4G/	.	.
1C	4A/	.	.
.	4B\	.	.
.	[2c\	.	.
=23	=23	=23	=23
0D	2c\]	0F	0f
.	4B\	.	.
.	4A/	.	.
.	2.B\	.	.
.	4A/	.	.
=24	=24	=24	=24
[0C	[0c	[0G	[0e
=25	=25	=25	=25
0C]	0c]	0G]	0e]
=26	=26	=26	=26
1r	0r	0A	0r
[1AA	.	.	.
=27	=27	=27	=27
1AA]	1r	1A	0e
1AA	[1E	[1c	.
=28	=28	=28	=28
0C	1E]	1c]	1e
.	1E	1c	[1g
=29	=29	=29	=29
1C	0G	0e	1g]
[1E	.	.	1g
=30	=30	=30	=30
1E]	1G	1e	0b
1E	[1B	[1g	.
=31	=31	=31	=31
0G	1B]	1g]	1b
.	1B	1g	[1dd
=32	=32	=32	=32
1G	0d	1d	1dd]
[1D	.	1r	1dd
=33	=33	=33	=33
1D]	1d	0f	0a
1r	[1A	.	.
=34	=34	=34	=34
0F	1A]	1f	1r
.	1r	[1f	[1cc
=35	=35	=35	=35
1F	0c	1f]	1cc]
[1F	.	1f	1cc
=36	=36	=36	=36
1F]	1c	1.c	0cc
1F	[1c	.	.
.	.	2d\	.
=37	=37	=37	=37
1.C	1c]	[0el;	0cc
.	1c	.	.
2D\	.	.	.
=38	=38	=38	=38
[0E;	1.G	0e_	1.b
.	2A/	.	2g/
=39	=39	=39	=39
0E]	0B;	0e]	0g;
=40	=40	=40	=40
0r	0r	0e	0g
=41	=41	=41	=41
0r	0r	1e	1g
.	.	[1f	[1a
=42	=42	=42	=42
0r	0r	1f]	1a]
.	.	1e	1g
=43	=43	=43	=43
0E	2.G/	0r	0r
.	4A/	.	.
.	2B\	.	.
.	[2c\	.	.
=44	=44	=44	=44
1E	4c\]	0r	0r
.	4B\	.	.
.	1e	.	.
[1F	.	.	.
.	4d\	.	.
.	4c\	.	.
=45	=45	=45	=45
1F]	1d	0r	1r
1E	1e	.	2r
.	.	.	[2g/
=46	=46	=46	=46
0r	0r	1c	2g/]
.	.	.	1a
.	.	1d	.
.	.	.	[2b\
=47	=47	=47	=47
0r	0r	1e	2b\]
.	.	.	2.cc\
.	.	[1f	.
.	.	.	4b\
.	.	.	4a/
.	.	.	4g/
=48	=48	=48	=48
1r	1r	1f]	1a
1C	1c	1e	1g
=49	=49	=49	=49
1D	2A/	0r	0r
.	2.B\	.	.
1E	.	.	.
.	4A/	.	.
.	4B\	.	.
.	4c\	.	.
=50	=50	=50	=50
0F	2d\	0r	0r
.	1e	.	.
.	2d\	.	.
=51	=51	=51	=51
1E	0e	2r	1r
.	.	1G	.
1C	.	.	1e
.	.	[2A/	.
=52	=52	=52	=52
1D	1r	2A/]	1f
.	.	1B	.
1E	1e	.	1g
.	.	[2c\	.
=53	=53	=53	=53
0F	1c	4c\]	0a
.	.	4B\	.
.	.	4A/	.
.	.	4G/	.
.	1d	1A	.
=54	=54	=54	=54
[0E	2e\	1B	2.g/
.	2.g\	.	.
.	.	.	4a/
.	.	2r	2b\
.	4f\	.	.
.	4e\	[2g\	2cc\
.	4d\	.	.
=55	=55	=55	=55
0E]	2e\	4g\]	2b\
.	.	4f\	.
.	2c\	4e\	1a
.	.	4d\	.
.	1B	1e	.
.	.	.	2g#i/
=56	=56	=56	=56
1r	[0A	0c	[0a
[1AA	.	.	.
=57	=57	=57	=57
2AA/]	0A]	1r	0a]
2BB/	.	.	.
1C	.	[1A	.
=58	=58	=58	=58
1D	0r	2A/]	0r
.	.	2B\	.
1AA	.	1c	.
=59	=59	=59	=59
1.F	0r	1d	0r
.	.	1A	.
2F\	.	.	.
=60	=60	=60	=60
2F\	0r	1r	0r
2F\	.	.	.
2.E\	.	[1c	.
4D\	.	.	.
=61	=61	=61	=61
2E\	0r	2c\]	0r
1F	.	2c\	.
.	.	2d\	.
4E\	.	2d\	.
4D\	.	.	.
=62	=62	=62	=62
1C	0r	2.e\	0r
.	.	4d\	.
1r	.	2e\	.
.	.	[2f\	.
=63	=63	=63	=63
1D	0r	2f\]	0r
.	.	4e\	.
.	.	4d\	.
1E	.	1c	.
=64	=64	=64	=64
2.F\	0r	1r	0r
4E\	.	.	.
2F\	.	1d	.
[2G\	.	.	.
=65	=65	=65	=65
2G\]	0r	1e	0r
4F\	.	.	.
4E\	.	.	.
1D	.	2.f\	.
.	.	4d\	.
=66	=66	=66	=66
1r	0r	1e	0r
[1G	.	1d	.
=67	=67	=67	=67
2G\]	0r	1.g	0r
2F\	.	.	.
2E\	.	.	.
2D\	.	2f\	.
=68	=68	=68	=68
2C/	0r	2e\	0r
2.F\	.	2d\	.
.	.	2.c\	.
4E\	.	.	.
[2A\	.	.	.
.	.	4A/	.
=69	=69	=69	=69
4A\]	0r	1B	0r
4G#i\	.	.	.
4G#i\	.	.	.
4F#i\	.	.	.
1A	.	1A	.
=70	=70	=70	=70
0r	1.c	0r	2.e/
.	.	.	4f/
.	.	.	2g/
.	2A/	.	[2a/
=71	=71	=71	=71
0r	1B	0r	4a/]
.	.	.	4g#i/
.	.	.	4g#i/
.	.	.	4f#i/
.	1A	.	1a
=72	=72	=72	=72
1.F	0r	2.A/	0r
.	.	4B\	.
.	.	2c\	.
2D\	.	[2d\	.
=73	=73	=73	=73
1E	0r	4d\]	0r
.	.	4c#i\	.
.	.	4c#i\	.
.	.	4B\	.
1D	.	1d	.
=74	=74	=74	=74
0r	0r	1d	1r
.	.	[1f	1a
=75	=75	=75	=75
0r	0r	2f\]	1.cc
.	.	2f\	.
.	.	1f	.
.	.	.	2cc\
=76	=76	=76	=76
0r	0r	1e	1cc
.	.	2.d\	1b
.	.	4c\	.
=77	=77	=77	=77
0r	0r	2d\	2.a/
.	.	1c	.
.	.	.	4g/
.	.	.	2a/
.	.	4B\	[2g/
.	.	4A/	.
=78	=78	=78	=78
1E	1r	0G	2g/]
.	.	.	4f/
.	.	.	4e/
[1G	1B	.	1d
=79	=79	=79	=79
2G\]	1.d	0r	0r
2G\	.	.	.
1G	.	.	.
.	2d\	.	.
=80	=80	=80	=80
1F	1d	0r	0r
2.E\	1c	.	.
4D\	.	.	.
=81	=81	=81	=81
2E\	2.B\	0r	0r
1D	.	.	.
.	4A/	.	.
.	2B\	.	.
4C/	[2A/	.	.
4BB/	.	.	.
=82	=82	=82	=82
1AA	2A/]	1.c	0r
.	4G/	.	.
.	4F/	.	.
[1C	1E	.	.
.	.	2d\	.
=83	=83	=83	=83
2C/]	1r	2e\	1.g
2D\	.	2f\	.
2E\	[1G	[1g	.
2F\	.	.	2a/
=84	=84	=84	=84
1.G	2G/]	2g\]	2b\
.	2A/	2f\	2cc\
.	2B\	2.d\	[1dd
2F\	2c\	.	.
.	.	4e\	.
=85	=85	=85	=85
2.D\	2d\	2.f\	2dd\]
.	2.f\	.	2cc\
4E\	.	4g\	.
2F\	.	2a\	2a/
.	4e\	.	.
[2G\	4d\	[2g\	[2b\
.	4c\	.	.
=86	=86	=86	=86
4G\]	2.d\	2g\]	4b\]
4F\	.	.	4a/
2D\	.	2.a\	2.dd\
.	4f\	.	.
1A	1e	.	.
.	.	4g\	4cc#i\
.	.	2e\	4cc#i\
.	.	.	4b\
=87	=87	=87	=87
0D	0d	1f	1dd
.	.	1r	1r
=88	=88	=88	=88
*M3/1	*M3/1	*M3/1	*M3/1
*met(3)	*met(3)	*met(3)	*met(3)
1F	0.r	1f	1a
1F	.	1f	1a
1F	.	1f	1a
=89	=89	=89	=89
1F	1c	1f	1a
1F	1c	1f	1a
1F	1c	1f	1a
=90	=90	=90	=90
1F	1c	1f	1a
1F	1c	1f	1a
1F	1c	1f	1a
=91	=91	=91	=91
*M2/1	*M2/1	*M2/1	*M2/1
*met(C|)	*met(C|)	*met(C|)	*met(C|)
[0C	2c\	0e	0g
.	2c\	.	.
.	1c	.	.
=92	=92	=92	=92
0C]	0c	1r	1r
.	.	1e	1g
=93	=93	=93	=93
1r	1r	1A	1a
1C	1c	1e	1g
=94	=94	=94	=94
1D	1F	1r	1r
1C	1c	2r	2r
.	.	2c\	2e/
=95	=95	=95	=95
0r	0r	2d\	2f/
.	.	2c\	2e/
.	.	1d	1f
=96	=96	=96	=96
2r	2r	1c	1e
2A\	2c\	.	.
2B\	2d\	1r	1r
2A\	2c\	.	.
=97	=97	=97	=97
1B	1d	1r	2r
.	.	.	2d/
1A	1c	2r	2e/
.	.	2A/	2f/
=98	=98	=98	=98
0r	0r	2B\	2g/
.	.	2c\	2.a/
.	.	2F/	.
.	.	.	4g/
.	.	[2f\	4f/
.	.	.	4e/
=99	=99	=99	=99
0r	0r	4f\]	2.d/
.	.	4e\	.
.	.	2.d\	.
.	.	.	4f/
.	.	.	1e
.	.	4c#i\	.
.	.	4c#i\	.
.	.	4B\	.
=100	=100	=100	=100
2r	1r	1d	1d
2D\	.	.	.
2E\	2r	1r	1r
2F\	2A/	.	.
=101	=101	=101	=101
2G\	2B\	0r	0r
2.A\	2c\	.	.
.	2F/	.	.
4G\	.	.	.
4F\	[2f\	.	.
4E\	.	.	.
=102	=102	=102	=102
2.D\	4f\]	0r	0r
.	4e\	.	.
.	2.d\	.	.
4F\	.	.	.
1E	.	.	.
.	4c#i\	.	.
.	4c#i\	.	.
.	4B\	.	.
=103	=103	=103	=103
1D	0d	0r	0r
1r	.	.	.
=104	=104	=104	=104
*M3/3%2	*	*M3/3%2	*
*met(3)	*	*met(3)	*
3%2D	0r	3%2d	0r
3%2F	.	3%2d	.
3%2G	.	3%2d	.
=105	=105	=105	=105
3%2A	0r	3%2c	0r
3%2D	.	3%4f	.
[3%2A	.	.	.
=106	=106	=106	=106
3%2A]	0r	3%2e	0r
3%4B	.	3%4d	.
=107	=107	=107	=107
*M2/1	*M3/3%2	*M2/1	*M3/3%2
*met(C|)	*met(3)	*met(C|)	*met(3)
1A	3%2A	1c	3%2a
.	3%2c	.	3%2a
1r	.	1r	.
.	3%2d	.	3%2a
=108	=108	=108	=108
0r	3%2e	0r	3%2g
.	3%2A	.	3%4cc
.	[3%2e	.	.
=109	=109	=109	=109
0r	3%2e]	0r	3%2b
.	3%4f	.	3%4a
=110	=110	=110	=110
*	*M2/1	*	*M2/1
*	*met(C|)	*	*met(C|)
0r	[0e	1r	0g
.	.	1c	.
=111	=111	=111	=111
0r	0e]	2c\	1r
.	.	2c\	.
.	.	2c\	1g
.	.	2c\	.
=112	=112	=112	=112
1r	0r	1G	2g/
.	.	.	2g/
1G	.	[1B	2g/
.	.	.	2g/
=113	=113	=113	=113
2G\	1r	2B\]	1d
2G\	.	2B\	.
2G\	1d	1B	1g
2G\	.	.	.
=114	=114	=114	=114
1D	2d\	1A	1f
.	2d\	.	.
1G	2d\	2r	1d
.	2d\	2B\	.
=115	=115	=115	=115
1F	1A	2c\	2.a/
.	.	2.d\	.
.	.	.	4g/
1D	1d	.	2.a/
.	.	4e\	.
.	.	4f\	.
.	.	4d\	4b\
=116	=116	=116	=116
0A	2c\	[0e	4cc\
.	.	.	4dd\
.	2A/	.	1cc
.	1c	.	.
.	.	.	4b\
.	.	.	4a/
=117	=117	=117	=117
[0E	1B	0e]	0g
.	2r	.	.
.	[2e\	.	.
=118	=118	=118	=118
0E]	4e\]	1g	0r
.	4d\	.	.
.	2B\	.	.
.	1c	1g	.
=119	=119	=119	=119
1G	[0B	2g\	0r
.	.	2g\	.
1G	.	1g	.
=120	=120	=120	=120
2G\	0B]	1d	1dd
2G\	.	.	.
1G	.	1g	1dd
=121	=121	=121	=121
1D	1d	1f	2dd\
.	.	.	2dd\
1G	1d	1d	1dd
=122	=122	=122	=122
1F	2d\	0f	1a
.	2d\	.	.
1D	1d	.	1dd
=123	=123	=123	=123
0A	1A	1e	2cc\
.	.	.	2a/
.	[1e	1r	1cc
=124	=124	=124	=124
1E	2e\]	1g	0b
.	2e\	.	.
1r	1e	1g	.
=125	=125	=125	=125
1G	[0B	2g\	0r
.	.	2g\	.
1G	.	1g	.
=126	=126	=126	=126
2G\	0B]	1d	1dd
2G\	.	.	.
1G	.	1g	1dd
=127	=127	=127	=127
1D	1d	1f	2dd\
.	.	.	2dd\
1G	1d	1d	1dd
=128	=128	=128	=128
1F	2d\	0f	1a
.	2d\	.	.
1D	1d	.	1dd
=129	=129	=129	=129
0A	1A	[0el	2.cc\
.	.	.	4b\
.	[1c	.	1a
=130	=130	=130	=130
[0El	2c\]	0e_	[0gl
.	2B\	.	.
.	1c	.	.
=131	=131	=131	=131
0E]	0Bl	0e]	0g]
!!LO:LB:i:g=z
=132||	=132||	=132||	=132||
*>B	*>B	*>B	*>B
!!section: Secunda pars: Si ego commissi
!!!OMD: Secunda pars: Si ego commissi
*M2/1	*M2/1	*M2/1	*M2/1
*met(C|)	*met(C|)	*met(C|)	*met(C|)
0r	0A	0r	0r
=133	=133	=133	=133
0r	1A	0r	0a
.	1A	.	.
=134	=134	=134	=134
0D	1.d	0r	1a
.	.	.	1a
.	2d\	.	.
=135	=135	=135	=135
1D	1d	0d	1.dd
1D	1d	.	.
.	.	.	2dd\
=136	=136	=136	=136
1.G	1d	1d	1dd
.	1d	1d	1dd
2G\	.	.	.
=137	=137	=137	=137
0G	1.B	1.g	1dd
.	.	.	1dd
.	2G/	2g\	.
=138	=138	=138	=138
0r	1.G	0g	1.b
.	4A/	.	2g/
.	4B\	.	.
=139	=139	=139	=139
1r	2c\	0r	2.g/
.	2G/	.	.
.	.	.	4a/
1G	2.g\	.	4b\
.	.	.	4cc\
.	.	.	[2dd\
.	4f\	.	.
=140	=140	=140	=140
1G	2g\	1r	4dd\]
.	.	.	4cc\
.	2e\	.	1cc
1G	1d	1g	.
.	.	.	2b\
=141	=141	=141	=141
1.E	[0c	1g	0cc
.	.	1g	.
2C/	.	.	.
=142	=142	=142	=142
1.C	0c]	1.e	0r
4D\	.	2c\	.
4E\	.	.	.
=143	=143	=143	=143
2F\	0r	2.c\	0r
2C/	.	.	.
.	.	4d\	.
2.c\	.	4e\	.
.	.	4f\	.
.	.	[2g\	.
4B\	.	.	.
=144	=144	=144	=144
2c\	0r	4g\]	0r
.	.	4f\	.
2A\	.	1f	.
1G	.	.	.
.	.	2e\	.
=145	=145	=145	=145
0F	1r	0f	0r
.	[1c	.	.
=146	=146	=146	=146
0r	2c\]	0r	1.cc
.	2B\	.	.
.	2A/	.	.
.	2G/	.	2b\
=147	=147	=147	=147
0r	2.c\	0r	2a/
.	.	.	2g/
.	4e\	.	.
.	1d	.	1f
=148	=148	=148	=148
1r	0c	1.g	0e
[1c	.	.	.
.	.	2f\	.
=149	=149	=149	=149
2c\]	0r	2e\	0r
2B\	.	2d\	.
2A\	.	4c\	.
.	.	4B\	.
2G\	.	[2e\	.
=150	=150	=150	=150
1F	0r	4e\]	0r
.	.	4d\	.
.	.	4d\	.
.	.	4c\	.
1E	.	1e	.
=151	=151	=151	=151
1r	1r	1r	1g
1C	1c	1e	1g
=152	=152	=152	=152
1C	1c	1e	1g
1C	1c	1e	[1cc
=153	=153	=153	=153
1.F	1A	2.c\	2cc\]
.	.	.	2b\
.	.	4d\	.
.	2.c\	2f\	2a/
2C/	.	[2e\	2g/
.	4B\	.	.
=154	=154	=154	=154
2D\	2A/	4e\]	2f/
.	.	4d\	.
2BB/	2G/	2d\	2d/
1AA	1A	2c#i\	1e
.	.	4d\	.
.	.	4c#i\	.
=155	=155	=155	=155
0D	0F	0d	1d
.	.	.	1r
=156	=156	=156	=156
1r	1r	1r	1g
1C	1c	1e	1g
=157	=157	=157	=157
1C	1c	1e	1g
1C	1c	1e	[1cc
=158	=158	=158	=158
1.F	1A	2.c\	2cc\]
.	.	.	2b\
.	.	4d\	.
.	2.c\	2f\	2a/
2C/	.	[2e\	2g/
.	4B\	.	.
=159	=159	=159	=159
2D\	2A/	4e\]	2f/
.	.	4d\	.
2BB/	2G/	2d\	2d/
1AA	1A	2c#i\	1e
.	.	4d\	.
.	.	4c#i\	.
=160	=160	=160	=160
1D	2.F/	1d	1d
.	4D/	.	.
1r	1D	1r	1r
=161	=161	=161	=161
*M3/1	*M3/1	*M3/1	*M3/1
*met(3)	*met(3)	*met(3)	*met(3)
0D	1r	0f	0a
.	0d	.	.
1D	.	1f	1a
=162	=162	=162	=162
1D	1d	1f	1a
1.G	1d	1.g	1.b
.	[1e	.	.
2C/	.	2e\	2g/
=163	=163	=163	=163
0C	2e\]	0e	0g
.	2c\	.	.
.	0c	.	.
1C	.	1e	1g
=164	=164	=164	=164
1F	1c	0f	1a
1D	1d	.	1b
[1A	1e	1e	[1cc
=165	=165	=165	=165
1A]	1A	1c	1cc]
0G	0B	1.d	0b
.	.	2e\	.
=166	=166	=166	=166
0F	1c	0f	0a
.	1A	.	.
1D	[1d	1f	1a
=167	=167	=167	=167
0G	1d]	1d	0b-i
.	1G	1.e-	.
1F	1A	.	1a
.	.	2d\	.
=168	=168	=168	=168
1D	1B-	1.d	1f
1.E-	1.G	.	0g
.	.	2B-i\	.
.	.	1c	.
2D\	2A/	.	.
=169	=169	=169	=169
*M2/1	*M2/1	*M2/1	*M2/1
*met(C|)	*met(C|)	*met(C|)	*met(C|)
[0BB-i	1.B-i	[0d	0f
.	4A/	.	.
.	4G/	.	.
=170	=170	=170	=170
0BB-]	2F/	0d]	0r
.	2G/	.	.
.	1D	.	.
=171	=171	=171	=171
0r	1r	0r	1.d
.	[1D	.	.
.	.	.	2e/
=172	=172	=172	=172
0r	2D/]	0r	2f/
.	2E/	.	2g/
.	2F/	.	2a/
.	2G/	.	2b\
=173	=173	=173	=173
1r	2A/	1.A	1cc
.	2B\	.	.
[1AA	2c\	.	1cc
.	2c\	2B\	.
=174	=174	=174	=174
2AA/]	2c\	2c\	1cc
2BB/	2c\	2d\	.
2C/	2c\	2e\	1cc
2D\	2c\	2f\	.
=175	=175	=175	=175
2E\	0G	2g\	1.b
2F\	.	2g\	.
2G\	.	2g\	.
2G\	.	2g\	2b\
=176	=176	=176	=176
2G\	1r	2g\	1b
2G\	.	2g\	.
2G\	1G	1d	1b
2G\	.	.	.
=177	=177	=177	=177
1D	1d	1d	1a
2r	1d	[1f	1a
2D\	.	.	.
=178	=178	=178	=178
2.D\	1.d	2f\]	1.a
.	.	2f\	.
4E\	.	.	.
2F\	.	2f\	.
2G\	2d\	2f\	2b\
=179	=179	=179	=179
2.A\	2c\	4e\	1cc
.	.	4d\	.
.	2.A/	4c\	.
4G\	.	4B\	.
4F\	.	2c\	1a
4E\	4G/	.	.
[2D\	[2F/	4d\	.
.	.	4c\	.
=180	=180	=180	=180
2D\]	2F/]	4B\	0dd
.	.	4A/	.
2C/	2E/	1A	.
1BB	1D	.	.
.	.	2G#i/	.
=181	=181	=181	=181
0AA	0E	[0A	0cc
=182	=182	=182	=182
0r	0r	0A]	1r
.	.	.	[1a
=183	=183	=183	=183
0r	0r	0d	1a]
.	.	.	1f
=184	=184	=184	=184
0r	1r	1B	1.g
.	[1e	[1c	.
.	.	.	2e/
=185	=185	=185	=185
0A	1e]	2c\]	0e
.	.	2A/	.
.	1c	1A	.
=186	=186	=186	=186
1F	1.d	0r	0r
[1G	.	.	.
.	2B\	.	.
=187	=187	=187	=187
2G\]	1B	0r	1.g
2E\	.	.	.
1E	2.B\	.	.
.	.	.	2g/
.	4B\	.	.
=188	=188	=188	=188
1.E	2B\	0r	2g/
.	2B\	.	2g/
.	2.G/	.	[1g
2E\	.	.	.
.	4E/	.	.
=189	=189	=189	=189
2E\	1E	1.e	2g/]
2E\	.	.	2e/
2.C/	1r	.	1e
.	.	2e\	.
4AA/	.	.	.
=190	=190	=190	=190
1AA	2.e\	2e\	1.cc
.	.	2e\	.
.	4e\	.	.
[1A	2e\	2.c\	.
.	2e\	.	2cc\
.	.	4A/	.
=191	=191	=191	=191
2A\]	2.c\	1A	2cc\
2A\	.	.	2cc\
.	4A/	.	.
2A\	1A	1r	2.cc\
2A\	.	.	.
.	.	.	4a/
=192	=192	=192	=192
2.F\	1r	1.f	[0a
4D\	.	.	.
[1D	1d	.	.
.	.	2f\	.
=193	=193	=193	=193
1D]	2d\	2f\	0a]
.	2d\	2f\	.
1D	[1d	2.f\	.
.	.	4d\	.
=194	=194	=194	=194
2G\	1d]	1d	0r
2G\	.	.	.
1G	1B	2r	.
.	.	2d\	.
=195	=195	=195	=195
1F	1c	2f\	1r
.	.	2f\	.
1D	[1d	1f	1a
=196	=196	=196	=196
2G\	1d]	1d	2b\
2G\	.	.	2b\
2G\	1B	2r	1b
2G\	.	2d\	.
=197	=197	=197	=197
1F	1c	2f\	1a
.	.	2f\	.
1D	1d	2f\	2r
.	.	2f\	2a/
=198	=198	=198	=198
2G\	1B	1d	2b\
2G\	.	.	2b\
1G	2r	2r	2b\
.	2B\	2d\	2b\
=199	=199	=199	=199
2.F\	2c\	2f\	1a
.	2A/	2f\	.
4E\	.	.	.
4D\	2.d\	[1f	1a
4C/	.	.	.
[2D\	.	.	.
.	4c\	.	.
=200	=200	=200	=200
4D\]	4B\	1f]	2dd\
4C/	4A/	.	.
4BB/	1A	.	2dd\
4AA/	.	.	.
1BB	.	2.d\	1dd
.	2G#i/	.	.
.	.	4e\	.
=201	=201	=201	=201
0AA	2A/	2f\	2.cc\
.	2.c\	1e	.
.	.	.	4b\
.	.	.	4a/
.	4B\	.	4g/
.	4A/	[2f\	[2a/
.	4G/	.	.
=202	=202	=202	=202
0r	3.F/V	4f\]	4a/]
.	.	4e\	4g/
.	6G/	4d\	4f/
.	3A/Z	.	.
.	.	4c\	4e/
.	1D	1d	1f
=203	=203	=203	=203
0AAl	0Al	0cl	0el
==	==	==	==
*-	*-	*-	*-
!!!RDF**kern: l=long note in original notation
!!!RDF**kern: i=editorial accidental
!!!ENC: Will Watson 22/07/2011
!!!END: 2011/07/22/
!!!EED: Jesse Rodin
!!!EEV: 2011/10/20/
!!attribution-level@Jos: 3 (tricky)
!!!ONB: Translated from MusicXML and edited on 2011/10/20/ by Craig Sapp
!!muse2ps: C^@{COA}?\n@{SCT}^u^(2) @{OTL2}^i2I150v90,90,90,150Q16
